X: 42004
T: Walsh's
R: polka
M: 2/4
K: Dmajor
|:fa af/a/|ba fa|g2B3/2c/|ed BA|
fa af/a/|ba fa|g2B3/2c/|edd2:|
|:f2f3/2e/|dc BA|g2g3/2a/|bage|
f2f3/2e/|dcBA|g2B3/2c/|edd2:|

